files/resources/svgs/general/o-device-tablet.svg

<svg width="24" height="24" viewBox="0 0 24 24" fill="none" xmlns="http://www.w3.org/2000/svg">
<path d="M10.5 19.5H13.5M6.75 21.75H17.25C18.4926 21.75 19.5 20.7426 19.5 19.5V4.5C19.5 3.25736 18.4926 2.25 17.25 2.25H6.75C5.50736 2.25 4.5 3.25736 4.5 4.5V19.5C4.5 20.7426 5.50736 21.75 6.75 21.75Z" stroke="#0F172A" stroke-width="1.5" stroke-linecap="round" stroke-linejoin="round"/>
</svg>

<svg xmlns="http://www.w3.org/2000/svg" fill="none" viewBox="0 0 24 24" stroke-width="1.5" stroke="currentColor" aria-hidden="true">
  <path stroke-linecap="round" stroke-linejoin="round" d="M10.5 19.5h3m-6.75 2.25h10.5a2.25 2.25 0 002.25-2.25v-15a2.25 2.25 0 00-2.25-2.25H6.75A2.25 2.25 0 004.5 4.5v15a2.25 2.25 0 002.25 2.25z"/>
</svg>
